bundles/org.openhab.ui.habpanel/web/assets/icons/smarthome-set/alarm.svg

<?xml version="1.0" encoding="UTF-8" standalone="no"?>
<svg width="32px" height="32px" viewBox="0 0 32 32" version="1.1" xmlns="http://www.w3.org/2000/svg" xmlns:xlink="http://www.w3.org/1999/xlink" xmlns:sketch="http://www.bohemiancoding.com/sketch/ns">
    <!-- Generator: Sketch 3.3.2 (12043) - http://www.bohemiancoding.com/sketch -->
    <title>alarm</title>
    <desc>Created with Sketch.</desc>
    <defs></defs>
    <g id="flatten" stroke="none" stroke-width="1" fill="none" fill-rule="evenodd" sketch:type="MSPage">
        <g id="z-copy" sketch:type="MSArtboardGroup" transform="translate(-132.000000, -132.000000)" fill="#000000">
            <g id="alarm" sketch:type="MSLayerGroup" transform="translate(132.000000, 132.000000)">
                <path d="M16,32 C7.163444,32 0,24.836556 0,16 C0,7.163444 7.163444,0 16,0 C24.836556,0 32,7.163444 32,16 C32,24.836556 24.836556,32 16,32 L16,32 Z M16,30 C23.7319865,30 30,23.7319865 30,16 C30,8.2680135 23.7319865,2 16,2 C8.2680135,2 2,8.2680135 2,16 C2,23.7319865 8.2680135,30 16,30 L16,30 Z M16,28 C9.372583,28 4,22.627417 4,16 C4,9.372583 9.372583,4 16,4 C22.627417,4 28,9.372583 28,16 C28,22.627417 22.627417,28 16,28 L16,28 Z M16,27 C22.0751322,27 27,22.0751322 27,16 C27,9.92486775 22.0751322,5 16,5 C9.92486775,5 5,9.92486775 5,16 C5,22.0751322 9.92486775,27 16,27 L16,27 Z M13,8.5 C13,8.22385763 13.2150574,8 13.4904785,8 L16.5095215,8 C16.7804053,8 17,8.23193359 17,8.5 C17,8.77614237 16.7849426,9 16.5095215,9 L13.4904785,9 C13.2195947,9 13,8.76806641 13,8.5 L13,8.5 Z M10,11.5 C10,11.2238576 10.2278805,11 10.4910052,11 L15.5089948,11 C15.7801695,11 16,11.2319336 16,11.5 C16,11.7761424 15.7721195,12 15.5089948,12 L10.4910052,12 C10.2198305,12 10,11.7680664 10,11.5 L10,11.5 Z M8,14.5 C8,14.2238576 8.22247314,14 8.50966585,14 L16.4903342,14 C16.7718148,14 17,14.2319336 17,14.5 C17,14.7761424 16.7775269,15 16.4903342,15 L8.50966585,15 C8.22818517,15 8,14.7680664 8,14.5 L8,14.5 Z M8,17.5 C8,17.2238576 8.22618103,17 8.4963932,17 L23.5036068,17 C23.7777572,17 24,17.2319336 24,17.5 C24,17.7761424 23.773819,18 23.5036068,18 L8.4963932,18 C8.22224281,18 8,17.7680664 8,17.5 L8,17.5 Z M10,20.5 C10,20.2238576 10.2290006,20 10.5003473,20 L21.4996527,20 C21.7759869,20 22,20.2319336 22,20.5 C22,20.7761424 21.7709994,21 21.4996527,21 L10.5003473,21 C10.2240131,21 10,20.7680664 10,20.5 L10,20.5 Z M13,23.5 C13,23.2238576 13.2278805,23 13.4910052,23 L18.5089948,23 C18.7801695,23 19,23.2319336 19,23.5 C19,23.7761424 18.7721195,24 18.5089948,24 L13.4910052,24 C13.2198305,24 13,23.7680664 13,23.5 L13,23.5 Z M20.5,14 C19.1192881,14 18,12.8807119 18,11.5 C18,10.1192881 19.1192881,9 20.5,9 C21.8807119,9 23,10.1192881 23,11.5 C23,12.8807119 21.8807119,14 20.5,14 L20.5,14 Z M20.5,13 C21.3284271,13 22,12.3284271 22,11.5 C22,10.6715729 21.3284271,10 20.5,10 C19.6715729,10 19,10.6715729 19,11.5 C19,12.3284271 19.6715729,13 20.5,13 L20.5,13 Z" sketch:type="MSShapeGroup"></path>
            </g>
        </g>
    </g>
</svg>

<svg width="32" height="32" xmlns="http://www.w3.org/2000/svg"><path d="M16 32C7.163 32 0 24.837 0 16S7.163 0 16 0s16 7.163 16 16-7.163 16-16 16Zm0-2c7.732 0 14-6.268 14-14S23.732 2 16 2 2 8.268 2 16s6.268 14 14 14Zm0-2C9.373 28 4 22.627 4 16S9.373 4 16 4s12 5.373 12 12-5.373 12-12 12Zm0-1c6.075 0 11-4.925 11-11S22.075 5 16 5 5 9.925 5 16s4.925 11 11 11ZM13 8.5c0-.276.215-.5.49-.5h3.02a.5.5 0 0 1 .49.5c0 .276-.215.5-.49.5h-3.02a.5.5 0 0 1-.49-.5Zm-3 3a.5.5 0 0 1 .491-.5h5.018a.5.5 0 0 1 0 1h-5.018a.5.5 0 0 1-.491-.5Zm-2 3c0-.276.222-.5.51-.5h7.98a.51.51 0 0 1 .51.5c0 .276-.222.5-.51.5H8.51a.51.51 0 0 1-.51-.5Zm0 3a.5.5 0 0 1 .496-.5h15.008a.5.5 0 0 1 0 1H8.496A.503.503 0 0 1 8 17.5Zm2 3c0-.276.229-.5.5-.5h11c.276 0 .5.232.5.5 0 .276-.229.5-.5.5h-11a.505.505 0 0 1-.5-.5Zm3 3a.5.5 0 0 1 .491-.5h5.018a.5.5 0 0 1 0 1h-5.018a.5.5 0 0 1-.491-.5Zm7.5-9.5a2.5 2.5 0 1 1 0-5 2.5 2.5 0 0 1 0 5Zm0-1a1.5 1.5 0 1 0 0-3 1.5 1.5 0 0 0 0 3Z" fill="#000" fill-rule="evenodd"/></svg>
